src/assets/duotone/Bucket.svg

<svg width="24" height="24" viewBox="0 0 24 24"  xmlns="http://www.w3.org/2000/svg">
<path d="M17.3099 11.25C17.3299 11.51 17.2399 11.78 17.0399 11.98L11.0199 18C9.68986 19.33 8.34986 19.33 7.00986 18L2.99986 13.99C2.31986 13.3 1.97986 12.61 1.99986 11.92H2.06986L17.1899 11.26L17.3099 11.25Z" />
<path opacity="0.4" d="M17.04 10.6402L9.69 3.29013L8.82 2.42014C8.53 2.13014 8.05 2.13014 7.76 2.42014C7.47 2.71014 7.47 3.19013 7.76 3.48013L8.63 4.35013L3 9.98013C2.36 10.6201 2.02 11.2701 2 11.9201H2.07L17.19 11.2602L17.31 11.2502C17.3 11.0302 17.2 10.8002 17.04 10.6402Z" />
<path d="M16 22.75H3C2.59 22.75 2.25 22.41 2.25 22C2.25 21.59 2.59 21.25 3 21.25H16C16.41 21.25 16.75 21.59 16.75 22C16.75 22.41 16.41 22.75 16 22.75Z" />
<path d="M19.35 14.7798C19.09 14.4998 18.61 14.4998 18.35 14.7798C18.04 15.1198 16.5 16.8598 16.5 18.1698C16.5 19.4698 17.55 20.5198 18.85 20.5198C20.15 20.5198 21.2 19.4698 21.2 18.1698C21.2 16.8598 19.66 15.1198 19.35 14.7798Z" />
</svg>

<?xml version="1.0" encoding="UTF-8"?>
<svg width="24" height="24" viewBox="0 0 24 24" xmlns="http://www.w3.org/2000/svg">
 <path d="m17.31 11.25c0.02 0.26-0.07 0.53-0.27 0.73l-6.02 6.02c-1.33 1.33-2.67 1.33-4.01 0l-4.01-4.01c-0.68-0.69-1.02-1.38-1-2.07h0.07l15.12-0.66 0.12-0.01z"/>
 <path d="m17.04 10.64-8.22-8.2201c-0.29-0.29-0.77-0.29-1.06 0s-0.29 0.76999 0 1.06l0.87 0.87-5.63 5.63c-0.64 0.63997-0.98 1.29-1 1.94h0.07l15.12-0.6599 0.12-0.01c-0.01-0.22-0.11-0.45-0.27-0.61z" opacity=".4"/>
 <path d="m16 22.75h-13c-0.41 0-0.75-0.34-0.75-0.75s0.34-0.75 0.75-0.75h13c0.41 0 0.75 0.34 0.75 0.75s-0.34 0.75-0.75 0.75z"/>
 <path d="m19.35 14.78c-0.26-0.28-0.74-0.28-1 0-0.31 0.34-1.85 2.08-1.85 3.39 0 1.3 1.05 2.35 2.35 2.35s2.35-1.05 2.35-2.35c0-1.31-1.54-3.05-1.85-3.39z"/>
</svg>
